images/icons.svg

<svg aria-hidden="true" style="position: absolute; width: 0; height: 0; overflow: hidden;" version="1.1" xmlns="http://www.w3.org/2000/svg" xmlns:xlink="http://www.w3.org/1999/xlink">
<defs>
<symbol id="icon-check" viewBox="0 0 42 32">
<path fill="#fff" style="fill: var(--color1, #fff); stroke: var(--color1, #fff)" stroke="#fff" stroke-linejoin="miter" stroke-linecap="butt" stroke-miterlimit="4" stroke-width="0.64" d="M6.263 15.205l-0.22-0.21-3.307 3.132 11.651 11.114 24.477-23.351-3.285-3.134-21.192 20.197-8.124-7.75z"></path>
</symbol>
<symbol id="icon-face" viewBox="0 0 32 32">
<path d="M16 16c4.42 0 8-3.58 8-8s-3.58-8-8-8c-4.42 0-8 3.58-8 8s3.58 8 8 8zM16 20c-5.34 0-16 2.68-16 8v2c0 1.1 0.9 2 2 2h28c1.1 0 2-0.9 2-2v-2c0-5.32-10.66-8-16-8z"></path>
</symbol>
<symbol id="icon-mail" viewBox="0 0 32 32">
<path d="M28 4h-24c-1.65 0-2.985 1.35-2.985 3l-0.015 18c0 1.65 1.35 3 3 3h24c1.65 0 3-1.35 3-3v-18c0-1.65-1.35-3-3-3zM27.4 10.375l-10.605 6.63c-0.48 0.3-1.11 0.3-1.59 0l-10.605-6.63c-0.375-0.24-0.6-0.645-0.6-1.080 0-1.005 1.095-1.605 1.95-1.080l10.050 6.285 10.050-6.285c0.855-0.525 1.95 0.075 1.95 1.080 0 0.435-0.225 0.84-0.6 1.080z"></path>
</symbol>
<symbol id="icon-phone" viewBox="0 0 32 32">
<path d="M27.419 20.852l-4.201-0.48c-1.009-0.116-2.002 0.232-2.713 0.943l-3.044 3.044c-4.681-2.382-8.519-6.203-10.901-10.901l3.060-3.060c0.711-0.711 1.059-1.704 0.943-2.713l-0.48-4.168c-0.198-1.671-1.604-2.928-3.292-2.928h-2.862c-1.869 0-3.424 1.555-3.308 3.424 0.877 14.126 12.174 25.407 26.284 26.284 1.869 0.116 3.424-1.439 3.424-3.308v-2.861c0.016-1.671-1.241-3.077-2.911-3.275z"></path>
</symbol>
<symbol id="icon-send" viewBox="0 0 32 32">
<path fill="#fff" style="fill: var(--color1, #fff)" d="M32 0l-32 18 10.227 3.788 15.773-14.788-11.998 16.186 0.010 0.004-0.012-0.004v8.814l5.735-6.691 7.265 2.691 5-28z"></path>
</symbol>
</defs>
</svg>

<svg xmlns="http://www.w3.org/2000/svg" aria-hidden="true" style="position:absolute;width:0;height:0;overflow:hidden"><defs><symbol id="icon-check" viewBox="0 0 32 32"><path fill="#2196f3" d="M4 1h24a4 4 0 0 1 4 4v22a4 4 0 0 1-4 4H4a4 4 0 0 1-4-4V5a4 4 0 0 1 4-4z" style="fill:var(--color1, #2196f3)"/><path fill="#fff" stroke="#fff" stroke-width=".4" d="m7.914 16.503-.138-.131-2.067 1.958 7.282 6.947 15.298-14.594-2.053-1.959-13.245 12.623-5.077-4.844z" style="fill:var(--color2, #fff);stroke:var(--color2, #fff)"/></symbol><symbol id="icon-check-box" viewBox="0 0 32 32"><path d="M28.444 4.333v23.333H3.555V4.333h24.889zm0-3.333H3.555C1.599 1-.001 2.5-.001 4.333v23.333c0 1.833 1.6 3.333 3.556 3.333h24.889c1.956 0 3.556-1.5 3.556-3.333V4.333C32 2.5 30.4 1 28.444 1z"/></symbol><symbol id="icon-face" viewBox="0 0 32 32"><path d="M16 16c4.42 0 8-3.58 8-8s-3.58-8-8-8-8 3.58-8 8 3.58 8 8 8zm0 4c-5.34 0-16 2.68-16 8v2c0 1.1.9 2 2 2h28c1.1 0 2-.9 2-2v-2c0-5.32-10.66-8-16-8z"/></symbol><symbol id="icon-mail" viewBox="0 0 32 32"><path d="M28 4H4a2.996 2.996 0 0 0-2.985 3L1 25c0 1.65 1.35 3 3 3h24c1.65 0 3-1.35 3-3V7c0-1.65-1.35-3-3-3zm-.6 6.375-10.605 6.63c-.48.3-1.11.3-1.59 0L4.6 10.375c-.375-.24-.6-.645-.6-1.08C4 8.29 5.095 7.69 5.95 8.215L16 14.5l10.05-6.285c.855-.525 1.95.075 1.95 1.08 0 .435-.225.84-.6 1.08z"/></symbol><symbol id="icon-phone" viewBox="0 0 32 32"><path d="m27.419 20.852-4.201-.48a3.293 3.293 0 0 0-2.713.943l-3.044 3.044A24.888 24.888 0 0 1 6.56 13.458l3.06-3.06a3.293 3.293 0 0 0 .943-2.713l-.48-4.168A3.31 3.31 0 0 0 6.791.589H3.929C2.06.589.505 2.144.621 4.013c.877 14.126 12.174 25.407 26.284 26.284 1.869.116 3.424-1.439 3.424-3.308v-2.861c.016-1.671-1.241-3.077-2.911-3.275z"/></symbol><symbol id="icon-send" viewBox="0 0 32 32"><path fill="#fff" d="M32 0 0 18l10.227 3.788L26 7 14.002 23.186l.01.004-.012-.004V32l5.735-6.691L27 28l5-28z" style="fill:var(--color2, #fff)"/></symbol></defs></svg>
